svg/icon/omg.svg

<svg height="32" viewBox="0 0 32 32" width="32" xmlns="http://www.w3.org/2000/svg" xmlns:xlink="http://www.w3.org/1999/xlink"><defs><linearGradient id="a" x1="50%" x2="50%" y1="0%" y2="100%"><stop offset="0" stop-color="#fff" stop-opacity=".5"/><stop offset="1" stop-opacity=".5"/></linearGradient><circle id="b" cx="16" cy="15" r="15"/><filter id="c" height="111.7%" width="111.7%" x="-5.8%" y="-4.2%"><feOffset dy=".5" in="SourceAlpha" result="shadowOffsetOuter1"/><feGaussianBlur in="shadowOffsetOuter1" result="shadowBlurOuter1" stdDeviation=".5"/><feComposite in="shadowBlurOuter1" in2="SourceAlpha" operator="out" result="shadowBlurOuter1"/><feColorMatrix in="shadowBlurOuter1" values="0 0 0 0 0   0 0 0 0 0   0 0 0 0 0  0 0 0 0.199473505 0"/></filter><path id="d" d="m11.8562452 16.2899744c-2.40298996 0-4.35095609 1.9497984-4.35095609 4.3550128s1.94822393 4.3550128 4.35121389 4.3550128c2.4032478 0 4.3512139-1.9497984 4.3512139-4.3550128s-1.9479661-4.3550128-4.3512139-4.3550128zm0 7.3926638c-1.6752096 0-3.03332045-1.3593012-3.03332045-3.0361072s1.35811085-3.0361073 3.03332045-3.0361073c1.6754674 0 3.0335783 1.3593013 3.0335783 3.0361073-.0028359 1.6755195-1.3593999 3.0332769-3.0335783 3.0361072zm9.2925409-16.68263735c-2.40299 0-4.3512139 1.94979836-4.3512139 4.35501285 0 2.4052144 1.9482239 4.3550128 4.3512139 4.3550128 2.4032478 0 4.3512139-1.9497984 4.3512139-4.3550128 0-2.40521449-1.9479661-4.35501285-4.3512139-4.35501285zm0 7.39266385c-1.6752096 0-3.0333205-1.3593013-3.0333205-3.0361073 0-1.67680597 1.3581109-3.0361072 3.0333205-3.0361072 1.6754674 0 3.0335783 1.35930123 3.0335783 3.0361072-.0028359 1.6755196-1.3593999 3.033277-3.0335783 3.0361073zm-9.2925409-7.39266385c-2.07145417-.00128649-3.85700385 1.45887526-4.26897445 3.49100875-.4117128 2.0318761.6643606 4.073015 2.57262495 4.8798991 1.9082643.8066268 4.1204794.1556648 5.2885888-1.5566482 1.1683672-1.712313.9693426-4.0112637-.475906-5.49689787h1.2338494v-1.31736178zm3.0335783 4.35501285c0 1.676806-1.3581109 3.0361072-3.0335783 3.0361072-1.6752096 0-3.03332045-1.3593012-3.03332045-3.0361072 0-1.67680605 1.35811085-3.03610728 3.03332045-3.03610728 1.674694.00205837 3.0322893 1.35981582 3.0351251 3.03610728z"/><filter id="e" height="119.4%" width="119.4%" x="-9.7%" y="-6.9%"><feOffset dy=".5" in="SourceAlpha" result="shadowOffsetOuter1"/><feGaussianBlur in="shadowOffsetOuter1" result="shadowBlurOuter1" stdDeviation=".5"/><feColorMatrix in="shadowBlurOuter1" values="0 0 0 0 0   0 0 0 0 0   0 0 0 0 0  0 0 0 0.204257246 0"/></filter></defs><g fill="none" fill-rule="evenodd"><use fill="#000" filter="url(#c)" xlink:href="#b"/><use fill="#1a53f0" xlink:href="#b"/><use fill="url(#a)" xlink:href="#b"/><circle cx="16" cy="15" r="14.5" stroke="#000" stroke-opacity=".097"/><g fill-rule="nonzero"><use fill="#000" filter="url(#e)" xlink:href="#d"/><use fill="#fff" fill-rule="evenodd" xlink:href="#d"/></g></g></svg>

<svg xmlns="http://www.w3.org/2000/svg" xmlns:xlink="http://www.w3.org/1999/xlink" width="32" height="32" viewBox="0 0 32 32">
  <defs>
    <linearGradient id="omg-c" x1="50%" x2="50%" y1="0%" y2="100%">
      <stop offset="0%" stop-color="#FFF" stop-opacity=".5"/>
      <stop offset="100%" stop-opacity=".5"/>
    </linearGradient>
    <circle id="omg-b" cx="16" cy="15" r="15"/>
    <filter id="omg-a" width="111.7%" height="111.7%" x="-5.8%" y="-4.2%" filterUnits="objectBoundingBox">
      <feOffset dy=".5" in="SourceAlpha" result="shadowOffsetOuter1"/>
      <feGaussianBlur in="shadowOffsetOuter1" result="shadowBlurOuter1" stdDeviation=".5"/>
      <feComposite in="shadowBlurOuter1" in2="SourceAlpha" operator="out" result="shadowBlurOuter1"/>
      <feColorMatrix in="shadowBlurOuter1" values="0 0 0 0 0   0 0 0 0 0   0 0 0 0 0  0 0 0 0.199473505 0"/>
    </filter>
    <path id="omg-e" d="M11.8562452,16.2899744 C9.45325524,16.2899744 7.50528911,18.2397728 7.50528911,20.6449872 C7.50528911,23.0502016 9.45351304,25 11.856503,25 C14.2597508,25 16.2077169,23.0502016 16.2077169,20.6449872 C16.2077169,18.2397728 14.2597508,16.2899744 11.856503,16.2899744 L11.8562452,16.2899744 Z M11.8562452,23.6826382 C10.1810356,23.6826382 8.82292475,22.323337 8.82292475,20.646531 C8.82292475,18.969725 10.1810356,17.6104237 11.8562452,17.6104237 C13.5317126,17.6104237 14.8898235,18.969725 14.8898235,20.646531 C14.8869876,22.3220505 13.5304236,23.6798079 11.8562452,23.6826382 Z M21.1487861,7.00000085 C18.7457961,7.00000085 16.7975722,8.94979921 16.7975722,11.3550137 C16.7975722,13.7602281 18.7457961,15.7100265 21.1487861,15.7100265 C23.5520339,15.7100265 25.5,13.7602281 25.5,11.3550137 C25.5,8.94979921 23.5520339,7.00000085 21.1487861,7.00000085 Z M21.1487861,14.3926647 C19.4735765,14.3926647 18.1154656,13.0333634 18.1154656,11.3565574 C18.1154656,9.67975143 19.4735765,8.3204502 21.1487861,8.3204502 C22.8242535,8.3204502 24.1823644,9.67975143 24.1823644,11.3565574 C24.1795285,13.032077 22.8229645,14.3898344 21.1487861,14.3926647 Z M11.8562452,7.00000085 C9.78479103,6.99871436 7.99924135,8.45887611 7.58727075,10.4910096 C7.17555795,12.5228857 8.25163135,14.5640246 10.1598957,15.3709087 C12.06816,16.1775355 14.2803751,15.5265735 15.4484845,13.8142605 C16.6168517,12.1019475 16.4178271,9.8029968 14.9725785,8.31736263 L16.2064279,8.31736263 L16.2064279,7.00000085 L11.8562452,7.00000085 Z M14.8898235,11.3550137 C14.8898235,13.0318197 13.5317126,14.3911209 11.8562452,14.3911209 C10.1810356,14.3911209 8.82292475,13.0318197 8.82292475,11.3550137 C8.82292475,9.67820765 10.1810356,8.31890642 11.8562452,8.31890642 C13.5309392,8.32096479 14.8885345,9.67872224 14.8913703,11.3550137 L14.8898235,11.3550137 Z"/>
    <filter id="omg-d" width="119.4%" height="119.4%" x="-9.7%" y="-6.9%" filterUnits="objectBoundingBox">
      <feOffset dy=".5" in="SourceAlpha" result="shadowOffsetOuter1"/>
      <feGaussianBlur in="shadowOffsetOuter1" result="shadowBlurOuter1" stdDeviation=".5"/>
      <feColorMatrix in="shadowBlurOuter1" values="0 0 0 0 0   0 0 0 0 0   0 0 0 0 0  0 0 0 0.204257246 0"/>
    </filter>
  </defs>
  <g fill="none" fill-rule="evenodd">
    <use fill="#000" filter="url(#omg-a)" xlink:href="#omg-b"/>
    <use fill="#1A53F0" xlink:href="#omg-b"/>
    <use fill="url(#omg-c)" style="mix-blend-mode:soft-light" xlink:href="#omg-b"/>
    <circle cx="16" cy="15" r="14.5" stroke="#000" stroke-opacity=".097"/>
    <g fill-rule="nonzero">
      <use fill="#000" filter="url(#omg-d)" xlink:href="#omg-e"/>
      <use fill="#FFF" fill-rule="evenodd" xlink:href="#omg-e"/>
    </g>
  </g>
</svg>
